build/images/form/question.svg

<svg width="19" height="19" viewBox="0 0 19 19" fill="none" xmlns="http://www.w3.org/2000/svg">
<g opacity="0.5">
<circle cx="9.5" cy="9.5" r="9.08696" stroke="white" stroke-width="0.826087"/>
<path d="M8.54317 12.1709V12.1146C8.54943 11.5169 8.61201 11.0413 8.73092 10.6877C8.84982 10.3341 9.0188 10.0478 9.23783 9.82874C9.45687 9.6097 9.71972 9.40787 10.0264 9.22326C10.211 9.11061 10.3768 8.97762 10.5239 8.82429C10.671 8.66784 10.7867 8.48791 10.8712 8.28452C10.9588 8.08113 11.0027 7.85583 11.0027 7.60863C11.0027 7.30198 10.9307 7.036 10.7867 6.81071C10.6428 6.58541 10.4504 6.41174 10.2094 6.28971C9.96848 6.16767 9.70094 6.10666 9.40681 6.10666C9.15022 6.10666 8.90302 6.15985 8.66521 6.26624C8.42739 6.37263 8.22869 6.54004 8.06911 6.76846C7.90952 6.99689 7.81721 7.29572 7.79218 7.66496H6.60938C6.63441 7.13301 6.77209 6.67772 7.02242 6.2991C7.27588 5.92047 7.60913 5.63103 8.02217 5.43077C8.43834 5.2305 8.89989 5.13037 9.40681 5.13037C9.95753 5.13037 10.4363 5.23989 10.8431 5.45893C11.253 5.67797 11.569 5.97836 11.7912 6.36011C12.0165 6.74187 12.1291 7.17681 12.1291 7.66496C12.1291 8.00916 12.0759 8.32051 11.9696 8.599C11.8663 8.87749 11.7161 9.12625 11.519 9.34529C11.325 9.56433 11.0903 9.75834 10.8149 9.92731C10.5395 10.0994 10.3189 10.2809 10.1531 10.4718C9.98726 10.6595 9.86679 10.8833 9.79169 11.143C9.71659 11.4027 9.67591 11.7266 9.66965 12.1146V12.1709H8.54317ZM9.14396 14.9495C8.91241 14.9495 8.71371 14.8666 8.54786 14.7008C8.38202 14.5349 8.2991 14.3362 8.2991 14.1047C8.2991 13.8731 8.38202 13.6744 8.54786 13.5086C8.71371 13.3427 8.91241 13.2598 9.14396 13.2598C9.37551 13.2598 9.57421 13.3427 9.74006 13.5086C9.9059 13.6744 9.98882 13.8731 9.98882 14.1047C9.98882 14.258 9.94971 14.3988 9.87148 14.5271C9.79638 14.6554 9.69468 14.7587 9.56639 14.8369C9.44123 14.912 9.30042 14.9495 9.14396 14.9495Z" fill="white"/>
</g>
</svg>

<svg width="19" height="19" fill="none" xmlns="http://www.w3.org/2000/svg"><g opacity=".5"><circle cx="9.5" cy="9.5" r="9.087" stroke="#fff" stroke-width=".826"/><path d="M8.543 12.17v-.055c.006-.598.069-1.074.188-1.427.119-.354.288-.64.507-.86.219-.218.482-.42.788-.605.185-.112.35-.245.498-.399a1.774 1.774 0 00.479-1.215 1.45 1.45 0 00-.216-.798 1.449 1.449 0 00-.578-.521 1.75 1.75 0 00-.802-.183c-.257 0-.504.053-.742.16a1.435 1.435 0 00-.596.501c-.16.229-.252.528-.277.897H6.61c.025-.532.163-.987.413-1.366a2.487 2.487 0 011-.868c.416-.2.878-.3 1.385-.3.55 0 1.03.109 1.436.328.41.219.726.52.948.901.226.382.338.817.338 1.305 0 .344-.053.656-.16.934a2.303 2.303 0 01-.45.746 3.09 3.09 0 01-.704.582 2.913 2.913 0 00-.662.545 1.72 1.72 0 00-.361.671c-.075.26-.116.584-.122.972v.056H8.543zm.601 2.78a.813.813 0 01-.596-.25.813.813 0 01-.249-.595c0-.232.083-.43.249-.596a.813.813 0 01.596-.25c.232 0 .43.084.596.25a.813.813 0 01.249.596.876.876 0 01-.422.732.805.805 0 01-.423.113z" fill="#fff"/></g></svg>
